X: 241
T: Miss Ogleves Fancy
%O: 1795
%R: reel
Z: 2018 John Chambers <jc:trillian.mit.edu>
B: Wm. Campbell "10th Book of New and Favorite Country Dances, Strathspey Reels" 1795 p.24
F: https://archive.org/details/campbellstenthbo00camp
M: 2/4
L: 1/16
K: Bb
% - - - - - - - - - - - - - - - - - - - - - - - - -
% Voice 1 arranged for small-scale proofreading
V: 1 staves=2
|:\
B3c Td2b2 | (gf).e.d (ed).c.B | ABcB A2F2 | G2c2 Tc4 |\
B3cd2b2 | (gf).e.d (ed).c.B | ABcB A2F2 |
G2B2 B4 :|\
D3FB2F2 | G2e2F2d2 | E3F (GF).E.D | C2c2 Tc4 |\
DF3B2F2 | G2e2F2d2 | E3G FEDC |
B,2B2 B4 |\
D3FB3F | G2e2F2d2 | E2g2D2f2 | C2c2 Tc4 |\
B2d2f2b2 | gfed edcB | ABcB A2F2 | G2B2 B4 |]
% - - - - - - - - - - - - - - - - - - - - - - - - -
% Voice 1 preserves the original staff layout
V: 2 clef=bass middle=d
|:\
B4 B4 | B4 B4 | f4 f4 | e4 f2f2 |\
B4 b4 | B4 b4 | f4 f4 |
B4 B4 :|\
B4 d4 | e4 d4 | c4 B4 | f4 f4 |\
B4 d4 | e4 d4 | c4 f4 |
B4 B4 |\
B4 d4 | e4 d2b2 | g2a2b2d2 | e4 f4 |\
b8 | b4 B4 | f4 F4 | B4 B4 |]
% - - - - - - - - - - - - - - - - - - - - - - - - -
%%begintext align
%% The 1st & 2d Cu Poussette quite round to
%% their own places Lead down the middle up
%% again hands 4 round at bottom Right &
%% Left at top.
%%endtext
% - - - - - - - - - - - - - - - - - - - - - - - - -

%%sep 1 1 500
%%sep 1 1 500

